X: 16056
T: Green Fields Of America, The
R: reel
M: 4/4
K: Gmajor
|:D2|B2ed B2dB|AGAB AGE2|G2GE DEGB|AGAB AGE2|
B2ed B2dB|AGAB AGE2|GAGE DEGB|AGAB G2:|
|:D2|GABc d2ef|gfge dBGB|c2a2B2g2|AGAB AGE2|
GABc d2ef|gfge dBGB|c2a2B2g2|AcBA G2:|

